X:74
T:B074-  Come Hither,---, or Hey, Ho, my Honey
Q:1/4=120
L:1/4
M:6/4
K:Gdorian
g|^f2ddef|g3b3|(fd2)c2B|(G3G2)g|\
^f2ddef|g3b3|(fd2)c2B|(B3B2)G|\
B3/2c/2Bc3/2 B/2c|d(f2f2)F|B3/2A/2Bc3/2d/2_e|(d3d2)F|\
B3/2c/2d(_ec2)|f3g3|(fd2) (c2B)|(G3G2)A|\
B3A2G|A(F2F2)F|B3/2A/2Bc3/2B/2c|(d3d2)A|\
B3/2c/2d(_ec2)|f3g3|(fd2)c2B|(G3G2)|]
